packages/foundations/assets/icons/functional/images/technology/power_socket_20.svg

<svg width="20" height="20" viewBox="0 0 20 20" fill="none" xmlns="http://www.w3.org/2000/svg">
<g clip-path="url(#clip0_187_608)">
<path fill-rule="evenodd" clip-rule="evenodd" d="M2 17V3C2 2.4342 2.4342 2 3 2H17C17.5658 2 18 2.4342 18 3V6.9951C18 7.561 17.5658 8 17 8C16.4536 8 16 7.561 16 6.9951V4H4V16H8C8.5463 16 9.0049 16.4536 9.0049 17C9.0049 17.5658 8.5463 18 8 18H3C2.4342 18 2 17.5658 2 17ZM5.0049 10.0195C5.0049 7.2488 7.2293 5.0049 9.9805 5.0049C11.4049 5.0049 12.7902 5.6098 13.7463 6.7024C13.922 6.8976 14 7.1317 14 7.3463C14 7.8927 13.5317 8.361 13.0049 8.361C12.7122 8.361 12.439 8.2439 12.2439 8.0098C11.678 7.3659 10.8585 6.9951 10.0195 6.9951C8.3415 6.9951 6.9951 8.361 6.9951 10.0195C6.9951 10.8585 7.3659 11.678 8.0098 12.2439C8.2244 12.439 8.361 12.7122 8.361 13.0049C8.361 13.5902 7.8927 14 7.3659 14C7.1122 14 6.878 13.9024 6.7024 13.7463C5.6096 12.7901 5.0049 11.4244 5.0049 10.0195ZM8 10.0049C8 9.45591 8.43131 9.0049 9 9.0049C9.54899 9.0049 10 9.45591 10 10.0049C10 10.5539 9.54899 11.0049 9 11.0049C8.43131 11.0049 8 10.5539 8 10.0049ZM12.6341 9.0439C12.8878 9.0439 13.1415 9.1415 13.3366 9.3366L14 10L14.3902 9.6293C14.5854 9.4341 14.839 9.3561 15.0927 9.3561C15.3463 9.3561 15.6 9.4341 15.7951 9.6293L16.9659 10.7805C17.6488 11.4829 17.9805 12.4 17.9805 13.3366C17.9805 14.1756 17.6878 15.0341 17.1024 15.7171L17.6878 16.2634C17.8829 16.4585 18 16.7317 18 17.0049C18 17.5707 17.5512 18 16.9854 18C16.7512 18 16.4976 17.9024 16.3024 17.7268L15.6976 17.1415C14.9951 17.7073 14.1366 17.9805 13.2195 17.9805C12.322 17.9805 11.4439 17.6098 10.8 16.9659L9.6293 15.7951C9.4341 15.6195 9.3366 15.3659 9.3366 15.0927C9.3366 14.8195 9.4341 14.5659 9.6293 14.3902L10 14.0195L9.2976 13.3171C9.0829 13.122 8.9659 12.8683 8.9659 12.5756C8.9659 12.0293 9.4146 11.5805 9.961 11.5805C10.2341 11.5805 10.5073 11.678 10.7024 11.8927L11.4049 12.5951L12.5951 11.4244L11.9122 10.7415C11.7171 10.5463 11.6195 10.2927 11.6195 10.039C11.6195 9.7854 11.7171 9.5317 11.9122 9.3366C12.1073 9.1415 12.361 9.0439 12.6341 9.0439ZM15.0927 11.7366L11.7366 15.0927L12.2049 15.5415C12.5171 15.8537 12.9268 15.9902 13.3366 15.9902C13.8049 15.9902 14.2732 15.8146 14.6049 15.4439L15.4439 14.6049C15.8146 14.2537 15.9902 13.8049 15.9902 13.3366C15.9902 12.9268 15.8537 12.5171 15.561 12.2049L15.0927 11.7366Z" fill="#1A1C1F"/>
</g>
<defs>
<clipPath id="clip0_187_608">
<rect width="20" height="20" fill="white"/>
</clipPath>
</defs>
</svg>

<svg xmlns="http://www.w3.org/2000/svg" width="20" height="20" fill="none"><g clip-path="url(#a)"><path fill="#1A1C1F" fill-rule="evenodd" d="M2 17V3c0-.566.434-1 1-1h14c.566 0 1 .434 1 1v3.995A.987.987 0 0 1 17 8a1 1 0 0 1-1-1.005V4H4v12h4c.546 0 1.005.454 1.005 1A1 1 0 0 1 8 18H3c-.566 0-1-.434-1-1m3.005-6.98c0-2.771 2.224-5.015 4.975-5.015 1.425 0 2.81.605 3.766 1.697.176.196.254.43.254.644 0 .547-.468 1.015-.995 1.015a.97.97 0 0 1-.761-.351 2.98 2.98 0 0 0-2.224-1.015 3.027 3.027 0 0 0-3.025 3.025c0 .838.37 1.658 1.015 2.224.214.195.351.468.351.76a.987.987 0 0 1-.995.996 1 1 0 0 1-.664-.254 4.96 4.96 0 0 1-1.697-3.726M8 10.005c0-.55.431-1 1-1 .549 0 1 .45 1 1 0 .549-.451 1-1 1-.569 0-1-.451-1-1m4.634-.961a1 1 0 0 1 .703.293L14 10l.39-.37a.97.97 0 0 1 .703-.274.97.97 0 0 1 .702.273l1.17 1.152c.684.702 1.015 1.619 1.015 2.556a3.67 3.67 0 0 1-.878 2.38l.586.546c.195.195.312.469.312.742 0 .566-.449.995-1.015.995-.234 0-.487-.098-.683-.273l-.604-.585c-.703.565-1.561.838-2.479.838-.897 0-1.775-.37-2.419-1.014l-1.17-1.17a.93.93 0 0 1-.293-.703c0-.274.097-.527.292-.703l.371-.37-.702-.703a.98.98 0 0 1-.332-.741 1 1 0 0 1 .995-.995c.273 0 .546.097.741.312l.703.702 1.19-1.17-.683-.684a.99.99 0 0 1 0-1.404c.195-.195.449-.293.722-.293m2.459 2.693-3.356 3.356.468.448c.312.313.722.45 1.132.45.468 0 .936-.176 1.268-.547l.839-.84c.37-.35.546-.8.546-1.267 0-.41-.136-.82-.429-1.132z" clip-rule="evenodd"/></g><defs><clipPath id="a"><path fill="#fff" d="M0 0h20v20H0z"/></clipPath></defs></svg>
